icons/hicolor/16x16/actions/icon-pacman-symbolic.svg

<?xml version="1.0" encoding="UTF-8" standalone="no"?>
<svg
   xmlns:dc="http://purl.org/dc/elements/1.1/"
   xmlns:cc="http://creativecommons.org/ns#"
   xmlns:rdf="http://www.w3.org/1999/02/22-rdf-syntax-ns#"
   xmlns:svg="http://www.w3.org/2000/svg"
   xmlns="http://www.w3.org/2000/svg"
   xmlns:sodipodi="http://sodipodi.sourceforge.net/DTD/sodipodi-0.dtd"
   xmlns:inkscape="http://www.inkscape.org/namespaces/inkscape"
   inkscape:version="1.0 (4035a4fb49, 2020-05-01)"
   sodipodi:docname="pacman-symbolic.svg"
   width="64"
   height="64"
   version="1.1"
   id="svg24">
  <sodipodi:namedview
     inkscape:document-rotation="0"
     inkscape:current-layer="svg24"
     inkscape:window-maximized="1"
     inkscape:window-y="40"
     inkscape:window-x="0"
     inkscape:cy="32"
     inkscape:cx="-17.084746"
     inkscape:zoom="3.6875"
     showgrid="false"
     id="namedview948"
     inkscape:window-height="898"
     inkscape:window-width="1920"
     inkscape:pageshadow="2"
     inkscape:pageopacity="0"
     guidetolerance="10"
     gridtolerance="10"
     objecttolerance="10"
     borderopacity="1"
     bordercolor="#666666"
     pagecolor="#ffffff" />
  <metadata
     id="metadata30">
    <rdf:RDF>
      <cc:Work
         rdf:about="">
        <dc:format>image/svg+xml</dc:format>
        <dc:type
           rdf:resource="http://purl.org/dc/dcmitype/StillImage" />
        <dc:title />
      </cc:Work>
    </rdf:RDF>
  </metadata>
  <defs
     id="defs28" />
  <path
     style="fill:#cccccc;stroke-width:1.425"
     d="M 20.6,4.9249996 C 10.624999,7.7750003 3.5143925,19.236274 3.5,30.574999 3.5,46.315549 16.259451,59.075 32,59.075 47.74055,59.075 60.5,46.315549 60.5,30.574999 60.495762,19.209198 53.374999,7.7750003 43.399999,4.9249996 44.393225,5.9559874 44.82215,6.6057873 44.825,7.7750003 c 0,3.9344247 -5.741326,7.1249987 -12.825,7.1249987 -7.083676,0 -12.825001,-3.190574 -12.825001,-7.1249987 0.0029,-1.152256 0.45885,-1.8302701 1.425001,-2.8500007 z M 19.174999,19.174999 C 26.299999,20.6 32,26.3 32,26.3 c 0,0 7.124999,-5.7 12.825,-7.125001 7.125,0 12.783251,11.619873 12.783251,11.619873 0.02281,0.40185 0.03748,0.803277 0.04176,1.205127 0,14.165925 -11.484074,25.65 -25.649999,25.65 -14.165925,0 -25.6500004,-11.484075 -25.6500004,-25.65 0,0 4.2749994,-12.825 12.8250004,-12.825 z m -0.02228,9.975 a 5.7,7.125 0 0 0 -5.471775,5.254688 L 19.174992,37.7 h -5.577538 a 5.7,7.125 0 0 0 2.318408,4.403027 5.7,0.7125 0 0 1 3.25913,-0.128022 5.7,0.7125 0 0 1 3.270265,0.130817 5.7,7.125 0 0 0 2.429736,-5.830812 5.7,7.125 0 0 0 -5.700001,-7.125002 5.7,7.125 0 0 0 -0.02228,0 z m 25.650002,0 a 5.7,7.125 0 0 0 -5.471778,5.254688 L 44.824993,37.7 h -5.577539 a 5.7,7.125 0 0 0 2.318409,4.403027 5.7,0.7125 0 0 1 3.25913,-0.128022 5.7,0.7125 0 0 1 3.270263,0.130817 5.7,7.125 0 0 0 2.429737,-5.830812 5.7,7.125 0 0 0 -5.7,-7.125002 5.7,7.125 0 0 0 -0.02228,0 z"
     id="path4" />
</svg>

<svg xmlns="http://www.w3.org/2000/svg" width="64" height="64"><path d="M20.6 4.925c-9.975 2.85-17.086 14.311-17.1 25.65 0 15.74 12.76 28.5 28.5 28.5s28.5-12.76 28.5-28.5c-.004-11.366-7.125-22.8-17.1-25.65.993 1.031 1.422 1.68 1.425 2.85 0 3.934-5.741 7.125-12.825 7.125s-12.825-3.19-12.825-7.125c.003-1.152.459-1.83 1.425-2.85m-1.425 14.25C26.3 20.6 32 26.3 32 26.3s7.125-5.7 12.825-7.125c7.125 0 12.783 11.62 12.783 11.62q.035.603.042 1.205c0 14.166-11.484 25.65-25.65 25.65S6.35 46.166 6.35 32c0 0 4.275-12.825 12.825-12.825m-.022 9.975a5.7 7.125 0 0 0-5.472 5.255l5.494 3.295h-5.578a5.7 7.125 0 0 0 2.319 4.403 5.7.713 0 0 1 3.259-.128 5.7.713 0 0 1 3.27.13 5.7 7.125 0 0 0 2.43-5.83 5.7 7.125 0 0 0-5.7-7.125 5.7 7.125 0 0 0-.022 0m25.65 0a5.7 7.125 0 0 0-5.472 5.255l5.494 3.295h-5.578a5.7 7.125 0 0 0 2.319 4.403 5.7.713 0 0 1 3.259-.128 5.7.713 0 0 1 3.27.13 5.7 7.125 0 0 0 2.43-5.83 5.7 7.125 0 0 0-5.7-7.125 5.7 7.125 0 0 0-.022 0" style="fill:#ccc;stroke-width:1.425"/></svg>
